img/gui/fs-close.svg

<svg xmlns="http://www.w3.org/2000/svg" height="60" width="60" version="1.1" viewBox="0 0 59.999999 59.999999">
 <g transform="translate(0,-992.3622)">
  <path d="m9.0703125 2l-7.0703125 7.0703125 10.392578 10.3925785-6.4648436 6.464843h19.9999996v-19.9999996l-6.464843 6.4648436-10.3925785-10.392578zm41.8593755 0l-10.392579 10.392578-6.464843-6.4648436v19.9999996h20l-6.464844-6.464843 10.392578-10.3925785-7.070312-7.0703125zm-45.0019536 32.072266l6.4648436 6.464843-10.392578 10.392579 7.0703125 7.070312 10.3925785-10.392578 6.464843 6.464844v-20h-19.9999996zm28.1445316 0v20l6.464843-6.464844 10.392579 10.392578 7.070312-7.070312-10.392578-10.392579 6.464844-6.464843h-20z" transform="translate(0,992.3622)" fill="#011936"/>
 </g>
</svg>

<?xml version="1.0" encoding="UTF-8" standalone="no"?>
<!-- Created with Inkscape (http://www.inkscape.org/) -->

<svg
   xmlns:dc="http://purl.org/dc/elements/1.1/"
   xmlns:cc="http://creativecommons.org/ns#"
   xmlns:rdf="http://www.w3.org/1999/02/22-rdf-syntax-ns#"
   xmlns:svg="http://www.w3.org/2000/svg"
   xmlns="http://www.w3.org/2000/svg"
   xmlns:sodipodi="http://sodipodi.sourceforge.net/DTD/sodipodi-0.dtd"
   xmlns:inkscape="http://www.inkscape.org/namespaces/inkscape"
   width="60"
   height="60"
   viewBox="0 0 59.999999 59.999999"
   id="svg2"
   version="1.1"
   inkscape:version="0.91 r13725"
   sodipodi:docname="fs-close.svg">
  <defs
     id="defs4" />
  <sodipodi:namedview
     id="base"
     pagecolor="#ffffff"
     bordercolor="#666666"
     borderopacity="1.0"
     inkscape:pageopacity="0.0"
     inkscape:pageshadow="2"
     inkscape:zoom="5.6"
     inkscape:cx="25.124683"
     inkscape:cy="28.9289"
     inkscape:document-units="px"
     inkscape:current-layer="layer1"
     showgrid="false"
     units="px"
     inkscape:showpageshadow="false"
     borderlayer="true"
     inkscape:window-width="1366"
     inkscape:window-height="667"
     inkscape:window-x="0"
     inkscape:window-y="804"
     inkscape:window-maximized="1" />
  <metadata
     id="metadata7">
    <rdf:RDF>
      <cc:Work
         rdf:about="">
        <dc:format>image/svg+xml</dc:format>
        <dc:type
           rdf:resource="http://purl.org/dc/dcmitype/StillImage" />
        <dc:title></dc:title>
      </cc:Work>
    </rdf:RDF>
  </metadata>
  <g
     inkscape:label="Layer 1"
     inkscape:groupmode="layer"
     id="layer1"
     transform="translate(0,-992.3622)">
    <path
       style="opacity:1;fill:#011936;fill-opacity:1;stroke:none;stroke-width:2;stroke-linecap:round;stroke-linejoin:miter;stroke-miterlimit:10;stroke-dasharray:none;stroke-dashoffset:0;stroke-opacity:1"
       d="M 9.0703125 2 L 2 9.0703125 L 12.392578 19.462891 L 5.9277344 25.927734 L 25.927734 25.927734 L 25.927734 5.9277344 L 19.462891 12.392578 L 9.0703125 2 z M 50.929688 2 L 40.537109 12.392578 L 34.072266 5.9277344 L 34.072266 25.927734 L 54.072266 25.927734 L 47.607422 19.462891 L 58 9.0703125 L 50.929688 2 z M 5.9277344 34.072266 L 12.392578 40.537109 L 2 50.929688 L 9.0703125 58 L 19.462891 47.607422 L 25.927734 54.072266 L 25.927734 34.072266 L 5.9277344 34.072266 z M 34.072266 34.072266 L 34.072266 54.072266 L 40.537109 47.607422 L 50.929688 58 L 58 50.929688 L 47.607422 40.537109 L 54.072266 34.072266 L 34.072266 34.072266 z "
       transform="translate(0,992.3622)"
       id="rect4136-3" />
  </g>
</svg>
